assets/img/ods/SDG-4.svg

<svg width="720" height="720" viewBox="0 0 720 720" fill="none" xmlns="http://www.w3.org/2000/svg">
<g clip-path="url(#clip0_342_53)">
<path d="M-1.08008 -1.08008H721.08V721.08H-1.08008V-1.08008Z" fill="#C5192D"/>
<path d="M94.7302 167.13H52.9102V146.73L88.7802 61.7301H119.21V147.24H132.64V167.13H119.21V199.43H94.7302V167.13ZM94.7302 147.24V88.7601L73.6502 147.24H94.7302ZM189 61.6301H211.1V68.3901H198.52V83.5301H208.4V90.2301H198.52V107.71H211.19V114.28H189V61.6301ZM216.46 61.6301H228.87C241.68 61.6301 245.58 66.7601 245.58 78.0101V97.1801C245.58 108.75 241.58 114.28 229.26 114.28H216.46V61.6301ZM229 107.58C235.57 107.58 235.83 104.07 235.83 97.5101V77.3601C235.83 71.0501 235.18 68.4501 228.83 68.4501H226V107.58H229ZM252 97.2501V61.6301H261.36V98.3501C261.36 103.35 261.94 107.84 266.82 107.84C271.7 107.84 272.34 103.36 272.34 98.3501V61.6301H281.64V97.2501C281.64 108.25 278.58 114.99 266.82 114.99C255.06 114.99 252 108.3 252 97.2501ZM288 97.4401V78.6601C288 67.8701 291.4 61.0001 303 61.0001C313.79 61.0001 317.24 67.0001 317.24 76.1501V80.5701H308V76.0601C308 71.6401 307.93 68.0601 303.06 68.0601C298.19 68.0601 297.66 71.8301 297.66 76.6401V99.4601C297.66 105.18 298.83 107.91 303.06 107.91C307.8 107.91 308 104.2 308 99.5201V94.7801H317.23V99.0001C317.23 108.3 314.11 115 302.99 115C291.4 115 288 107.71 288 97.4401ZM331.44 61.6301H341.71L352.24 114.28H343.34L341.26 102.12H332.09L330 114.28H321L331.44 61.6301ZM340.22 96.0001L336.64 73.9001L333.07 96.0001H340.22ZM376 80.6101V76.0601C376 71.6401 375.94 68.0601 371.06 68.0601C366.18 68.0601 365.67 71.8301 365.67 76.6401V99.4601C365.67 105.18 366.84 107.91 371.06 107.91C375.81 107.91 376 104.2 376 99.5201V94.7801H385.23V99.0001C385.23 107.91 382.37 114.47 372.3 115V118.25C377.11 118.25 380.36 120.4 380.36 124.43C380.36 129.04 376.26 130.99 371.52 130.99C369.935 130.975 368.359 130.736 366.84 130.28V126.18C367.976 126.534 369.16 126.709 370.35 126.7C372.62 126.7 374.35 126.05 374.35 124.3C374.35 121.96 371.69 121.11 368.63 120.79V114.87C359.01 113.87 356.02 106.94 356.02 97.4501V78.6601C356 67.8701 359.46 61.0001 371 61.0001C381.79 61.0001 385.23 67.0001 385.23 76.1501V80.5701L376 80.6101ZM399.5 61.6301H409.77L420.3 114.28H411.39L409.31 102.12H400.15L398 114.28H389L399.5 61.6301ZM401.5 51.6301C399.81 51.6301 399.23 52.6301 399.23 54.3001H394.68C394.68 49.6201 395.98 46.1101 400.2 46.1101C403.39 46.1101 405.53 49.1101 408.33 49.1101C409.82 49.1101 410.41 48.2001 410.41 46.5101H414.7C414.7 50.6001 413.98 54.7001 409.76 54.7001C406.39 54.7401 404.18 51.6801 401.51 51.6801L401.5 51.6301ZM408.27 96.0001L404.7 73.9001L401.12 96.0001H408.27ZM423.87 97.7701V78.0001C423.87 67.3401 427.77 61.0001 439.08 61.0001C450.39 61.0001 454.23 67.3101 454.23 78.0001V97.7701C454.23 108.36 450.33 114.99 439.08 114.99C427.83 114.99 423.87 108.43 423.87 97.7701ZM444.48 100V75.8001C444.48 71.3801 443.76 68.0601 439.08 68.0601C434.4 68.0601 433.62 71.3801 433.62 75.8001V100C433.62 104.36 434.34 107.87 439.08 107.87C443.82 107.87 444.48 104.4 444.48 100ZM189 147.63H201.42C214.22 147.63 218.12 152.76 218.12 164.01V183.18C218.12 194.75 214.12 200.28 201.81 200.28H189V147.63ZM201.55 193.63C208.11 193.63 208.37 190.12 208.37 183.56V163.36C208.37 157.05 207.72 154.45 201.37 154.45H198.51V193.58L201.55 193.63ZM224.84 147.63H246.94V154.39H234.4V169.53H244.28V176.23H234.4V193.71H247.07V200.28H224.84V147.63ZM283.28 200.93C282.913 200.982 282.541 201.002 282.17 200.99C270.8 201 267 194.43 267 183.77V164C267 153.34 270.9 147 282.21 147C293.52 147 297.36 153.31 297.36 164V183.76C297.36 191.3 295.36 196.89 290.08 199.36C291.583 201.292 293.354 203 295.34 204.43L293.52 210.8C290.3 209.31 285.88 204.83 283.28 200.93ZM287.63 186V161.8C287.63 157.38 286.85 154.06 282.17 154.06C277.49 154.06 276.71 157.38 276.71 161.8V186C276.71 190.36 277.43 193.87 282.17 193.87C286.91 193.87 287.63 190.4 287.63 186ZM303.75 183.25V147.63H313.11V184.35C313.11 189.35 313.7 193.84 318.57 193.84C323.44 193.84 324.1 189.36 324.1 184.35V147.63H333.39V183.25C333.39 194.3 330.34 200.99 318.57 200.99C306.8 200.99 303.75 194.3 303.75 183.25ZM348.21 147.63H358.48L369 200.28H360.1L358 188.12H348.83L346.69 200.28H337.69L348.21 147.63ZM357 182L353.42 159.9L349.84 182H357ZM374 147.63H383.56V193.71H396.36V200.28H374V147.63ZM401.25 147.63H410.74V200.28H401.25V147.63ZM418.54 147.63H431C443.8 147.63 447.7 152.76 447.7 164.01V183.18C447.7 194.75 443.7 200.28 431.39 200.28H418.54V147.63ZM431.09 193.63C437.65 193.63 437.91 190.12 437.91 183.56V163.36C437.91 157.05 437.26 154.45 430.91 154.45H428.1V193.58L431.09 193.63ZM461.9 147.63H472.17L482.7 200.28H473.79L471.71 188.12H462.54L460.4 200.28H451.4L461.9 147.63ZM470.67 182L467.1 159.9L463.52 182H470.67ZM487.63 147.63H500.05C512.86 147.63 516.76 152.76 516.76 164.01V183.18C516.76 194.75 512.76 200.28 500.44 200.28H487.63V147.63ZM500.18 193.63C506.74 193.63 507 190.12 507 183.56V163.36C507 157.05 506.36 154.45 500.05 154.45H497.19V193.58L500.18 193.63ZM523.51 147.63H545.61V154.39H533.07V169.53H543V176.23H533.12V193.71H545.79V200.28H523.51V147.63ZM318.96 386.25L188.84 311.12V554.17L318.96 593.42V386.25ZM333.27 386.75V593.51L464.23 554.14V311.13L333.27 386.75ZM535.58 549.86L550.98 603.66L566.36 549.86V333.62H535.58V549.86Z" fill="white"/>
<path d="M492.17 321.56L478.23 310.54V560.76L333.65 607.47H318.96L175.03 567.26V310.54L161.07 321.56V577.05L318.3 620.58H334.31L479.36 574.52L492.17 570.75V321.56ZM566.37 305C566.423 302.945 566.063 300.901 565.313 298.987C564.563 297.074 563.437 295.33 562.003 293.858C560.568 292.386 558.853 291.216 556.959 290.418C555.065 289.619 553.031 289.208 550.975 289.208C548.92 289.208 546.885 289.619 544.991 290.418C543.098 291.216 541.383 292.386 539.948 293.858C538.513 295.33 537.388 297.074 536.638 298.987C535.887 300.901 535.528 302.945 535.58 305V321.6H566.37V305Z" fill="white"/>
</g>
<defs>
<clipPath id="clip0_342_53">
<rect width="720" height="720" fill="white"/>
</clipPath>
</defs>
</svg>

<svg xmlns="http://www.w3.org/2000/svg" viewBox="0 0 720 720"><defs><style>.cls-2{fill:#fff}</style></defs><path fill="#c5192d" d="M-1.08-1.08h722.16v722.16H-1.08z" id="goal_background" data-name="goal background"/><g id="ENG_text_graphics" data-name="ENG text &amp; graphics"><path class="cls-2" d="M94.73 167.13H52.91v-20.4l35.87-85h30.43v85.51h13.43v19.89h-13.43v32.3H94.73zm0-19.89V88.76l-21.08 58.48zM189 61.63h22.1v6.76h-12.58v15.14h9.88v6.7h-9.88v17.48h12.67v6.57H189zM216.46 61.63h12.41c12.81 0 16.71 5.13 16.71 16.38v19.17c0 11.57-4 17.1-16.32 17.1h-12.8zM229 107.58c6.57 0 6.83-3.51 6.83-10.07V77.36c0-6.31-.65-8.91-7-8.91H226v39.13zM252 97.25V61.63h9.36v36.72c0 5 .58 9.49 5.46 9.49s5.52-4.48 5.52-9.49V61.63h9.3v35.62c0 11-3.06 17.74-14.82 17.74S252 108.3 252 97.25zM288 97.44V78.66C288 67.87 291.4 61 303 61c10.79 0 14.24 6 14.24 15.15v4.42H308v-4.51c0-4.42-.07-8-4.94-8s-5.4 3.77-5.4 8.58v22.82c0 5.72 1.17 8.45 5.4 8.45 4.74 0 4.94-3.71 4.94-8.39v-4.74h9.23V99c0 9.3-3.12 16-14.24 16-11.59 0-14.99-7.29-14.99-17.56zM331.44 61.63h10.27l10.53 52.65h-8.9l-2.08-12.16h-9.17L330 114.28h-9zM340.22 96l-3.58-22.1-3.57 22.1zM376 80.61v-4.55c0-4.42-.06-8-4.94-8s-5.39 3.77-5.39 8.58v22.82c0 5.72 1.17 8.45 5.39 8.45 4.75 0 4.94-3.71 4.94-8.39v-4.74h9.23V99c0 8.91-2.86 15.47-12.93 16v3.25c4.81 0 8.06 2.15 8.06 6.18 0 4.61-4.1 6.56-8.84 6.56a16.87 16.87 0 01-4.68-.71v-4.1a11.51 11.51 0 003.51.52c2.27 0 4-.65 4-2.4 0-2.34-2.66-3.19-5.72-3.51v-5.92c-9.62-1-12.61-7.93-12.61-17.42V78.66C356 67.87 359.46 61 371 61c10.79 0 14.23 6 14.23 15.15v4.42zM399.5 61.63h10.27l10.53 52.65h-8.91l-2.08-12.16h-9.16L398 114.28h-9zm2-10c-1.69 0-2.27 1-2.27 2.67h-4.55c0-4.68 1.3-8.19 5.52-8.19 3.19 0 5.33 3 8.13 3 1.49 0 2.08-.91 2.08-2.6h4.29c0 4.09-.72 8.19-4.94 8.19-3.37.04-5.58-3.02-8.25-3.02zM408.27 96l-3.57-22.1-3.58 22.1zM423.87 97.77V78c0-10.66 3.9-17 15.21-17s15.15 6.31 15.15 17v19.77c0 10.59-3.9 17.22-15.15 17.22s-15.21-6.56-15.21-17.22zm20.61 2.23V75.8c0-4.42-.72-7.74-5.4-7.74s-5.46 3.32-5.46 7.74V100c0 4.36.72 7.87 5.46 7.87s5.4-3.47 5.4-7.87zM189 147.63h12.42c12.8 0 16.7 5.13 16.7 16.38v19.17c0 11.57-4 17.1-16.31 17.1H189zm12.55 46c6.56 0 6.82-3.51 6.82-10.07v-20.2c0-6.31-.65-8.91-7-8.91h-2.86v39.13zM224.84 147.63h22.1v6.76H234.4v15.14h9.88v6.7h-9.88v17.48h12.67v6.57h-22.23zM283.28 200.93a6.52 6.52 0 01-1.11.06C270.8 201 267 194.43 267 183.77V164c0-10.66 3.9-17 15.21-17s15.15 6.31 15.15 17v19.76c0 7.54-2 13.13-7.28 15.6a25.66 25.66 0 005.26 5.07l-1.82 6.37c-3.22-1.49-7.64-5.97-10.24-9.87zm4.35-14.93v-24.2c0-4.42-.78-7.74-5.46-7.74s-5.46 3.32-5.46 7.74V186c0 4.36.72 7.87 5.46 7.87s5.46-3.47 5.46-7.87zM303.75 183.25v-35.62h9.36v36.72c0 5 .59 9.49 5.46 9.49s5.53-4.48 5.53-9.49v-36.72h9.29v35.62c0 11.05-3.05 17.74-14.82 17.74s-14.82-6.69-14.82-17.74zM348.21 147.63h10.27L369 200.28h-8.9l-2.1-12.16h-9.17l-2.14 12.16h-9zM357 182l-3.58-22.1-3.58 22.1zM374 147.63h9.56v46.08h12.8v6.57H374zM401.25 147.63h9.49v52.65h-9.49zM418.54 147.63H431c12.8 0 16.7 5.13 16.7 16.38v19.17c0 11.57-4 17.1-16.31 17.1h-12.85zm12.55 46c6.56 0 6.82-3.51 6.82-10.07v-20.2c0-6.31-.65-8.91-7-8.91h-2.81v39.13zM461.9 147.63h10.27l10.53 52.65h-8.91l-2.08-12.16h-9.17l-2.14 12.16h-9zm8.77 34.37l-3.57-22.1-3.58 22.1zM487.63 147.63h12.42c12.81 0 16.71 5.13 16.71 16.38v19.17c0 11.57-4 17.1-16.32 17.1h-12.81zm12.55 46c6.56 0 6.82-3.51 6.82-10.07v-20.2c0-6.31-.64-8.91-6.95-8.91h-2.86v39.13zM523.51 147.63h22.1v6.76h-12.54v15.14H543v6.7h-9.88v17.48h12.67v6.57h-22.28zM318.96 386.25l-130.12-75.13v243.05l130.12 39.25V386.25zM333.27 386.75v206.76l130.96-39.37V311.13l-130.96 75.62zM539.4 549.86h-3.82l15.4 53.8 15.38-53.8h-3.82 3.82V333.62h-30.78v216.24h3.82z"/><path class="cls-2" d="M492.17 321.56l-13.94-11.02v250.22l-144.58 46.71h-14.69l-143.93-40.21V310.54l-13.96 11.02v255.49l157.23 43.53H334.31l145.05-46.06 12.81-3.77V321.56zM566.37 305a15.4 15.4 0 10-30.79 0v16.6h30.79z"/></g></svg>
